biglinux-webapps/usr/share/icons/hicolor/scalable/apps/webapp-doctranslator.svg

<?xml version="1.0" encoding="UTF-8" standalone="no"?>
<svg
   width="24"
   height="24"
   viewBox="0 0 24 24"
   fill="none"
   version="1.1"
   id="svg154"
   sodipodi:docname="app.svg"
   inkscape:version="1.2.2 (b0a8486541, 2022-12-01)"
   xml:space="preserve"
   inkscape:export-filename="../../../../ícones big/doctranslator.svg"
   inkscape:export-xdpi="96"
   inkscape:export-ydpi="96"
   xmlns:inkscape="http://www.inkscape.org/namespaces/inkscape"
   xmlns:sodipodi="http://sodipodi.sourceforge.net/DTD/sodipodi-0.dtd"
   xmlns:xlink="http://www.w3.org/1999/xlink"
   xmlns="http://www.w3.org/2000/svg"
   xmlns:svg="http://www.w3.org/2000/svg"
   xmlns:sketch="http://www.bohemiancoding.com/sketch/ns"><sodipodi:namedview
     id="namedview156"
     pagecolor="#ffffff"
     bordercolor="#000000"
     borderopacity="1"
     inkscape:showpageshadow="0"
     inkscape:pageopacity="1"
     inkscape:pagecheckerboard="false"
     inkscape:deskcolor="#ffffff"
     showgrid="true"
     inkscape:zoom="32"
     inkscape:cx="9.609375"
     inkscape:cy="15.453125"
     inkscape:window-width="1920"
     inkscape:window-height="1052"
     inkscape:window-x="0"
     inkscape:window-y="0"
     inkscape:window-maximized="1"
     inkscape:current-layer="svg154"
     showguides="true"
     guidecolor="#ff0000"
     guideopacity="1"
     inkscape:lockguides="true"
     showborder="true"
     borderlayer="true"><inkscape:grid
       type="xygrid"
       id="grid356"
       color="#000000"
       opacity="0.10196078"
       empcolor="#000000"
       empopacity="0.10196078"
       snapvisiblegridlinesonly="true"
       enabled="true"
       visible="true"
       dotted="false" /><sodipodi:guide
       position="4,12"
       orientation="-1,0"
       id="guide764"
       inkscape:locked="true"
       inkscape:label="left-circle"
       inkscape:color="rgb(255,0,0)" /><sodipodi:guide
       position="5,12"
       orientation="-1,0"
       id="guide2218"
       inkscape:locked="true"
       inkscape:label="left-square"
       inkscape:color="rgb(255,0,0)" /><sodipodi:guide
       position="12,20"
       orientation="0,1"
       id="guide2220"
       inkscape:locked="true"
       inkscape:label="top-circle"
       inkscape:color="rgb(255,0,0)" /><sodipodi:guide
       position="12,5"
       orientation="0,1"
       id="guide2222"
       inkscape:locked="true"
       inkscape:label="bottom-square"
       inkscape:color="rgb(255,0,0)" /><sodipodi:guide
       position="12,4"
       orientation="0,1"
       id="guide2224"
       inkscape:locked="true"
       inkscape:label="bottom-circle"
       inkscape:color="rgb(255,0,0)" /><sodipodi:guide
       position="19,12"
       orientation="-1,0"
       id="guide2226"
       inkscape:locked="true"
       inkscape:label="right-square"
       inkscape:color="rgb(255,0,0)" /><sodipodi:guide
       position="20,12"
       orientation="-1,0"
       id="guide2228"
       inkscape:locked="true"
       inkscape:label="right-circle"
       inkscape:color="rgb(255,0,0)" /><sodipodi:guide
       position="12,19"
       orientation="0,1"
       id="guide2230"
       inkscape:locked="true"
       inkscape:label="top-square"
       inkscape:color="rgb(255,0,0)" /><sodipodi:guide
       position="12,12"
       orientation="1,0"
       id="guide765"
       inkscape:locked="true" /><sodipodi:guide
       position="12,12"
       orientation="0,-1"
       id="guide767"
       inkscape:locked="true" /><sodipodi:guide
       position="12,12"
       orientation="0.70710678,0.70710678"
       id="guide2266"
       inkscape:locked="true"
       inkscape:label=""
       inkscape:color="rgb(255,0,0)" /><sodipodi:guide
       position="12,12"
       orientation="-0.70710678,0.70710678"
       id="guide2994"
       inkscape:locked="true"
       inkscape:label=""
       inkscape:color="rgb(255,0,0)" /><sodipodi:guide
       position="3,12"
       orientation="-1,0"
       id="guide131543"
       inkscape:locked="true"
       inkscape:label="left-horizontal"
       inkscape:color="rgb(255,0,0)" /><sodipodi:guide
       position="12,21"
       orientation="0,1"
       id="guide131545"
       inkscape:locked="true"
       inkscape:label="top-vertical"
       inkscape:color="rgb(255,0,0)" /><sodipodi:guide
       position="21,12"
       orientation="-1,0"
       id="guide131547"
       inkscape:locked="true"
       inkscape:label="right-horizontal"
       inkscape:color="rgb(255,0,0)" /><sodipodi:guide
       position="12,3"
       orientation="0,1"
       id="guide131549"
       inkscape:locked="true"
       inkscape:label="bottom-vertical"
       inkscape:color="rgb(255,0,0)" /></sodipodi:namedview><defs
     id="defs152"><linearGradient
       inkscape:collect="always"
       id="linearGradient7843"><stop
         style="stop-color:#ececec;stop-opacity:1"
         offset="0"
         id="stop7839" /><stop
         style="stop-color:#e6e6e6;stop-opacity:1"
         offset="1"
         id="stop7841" /></linearGradient><linearGradient
       inkscape:collect="always"
       id="linearGradient5309"><stop
         style="stop-color:#ff0000;stop-opacity:1"
         offset="0"
         id="stop5305" /><stop
         style="stop-color:#ffcc00;stop-opacity:1"
         offset="1"
         id="stop5307" /></linearGradient><linearGradient
       id="linearGradient1257"
       inkscape:swatch="solid"><stop
         style="stop-color:#000000;stop-opacity:1;"
         offset="0"
         id="stop1255" /></linearGradient><radialGradient
       inkscape:collect="always"
       xlink:href="#linearGradient5309"
       id="radialGradient5311"
       cx="-8.25"
       cy="18.72925"
       fx="-8.25"
       fy="18.72925"
       r="4.8534236"
       gradientTransform="matrix(4.3158307,-3.5023839,1.7074313,2.1040492,6.621766,-48.190947)"
       gradientUnits="userSpaceOnUse" /><radialGradient
       inkscape:collect="always"
       xlink:href="#linearGradient7843"
       id="radialGradient7845"
       cx="1627.0533"
       cy="98.893562"
       fx="1627.0533"
       fy="98.893562"
       r="45"
       gradientUnits="userSpaceOnUse"
       gradientTransform="matrix(-0.00625002,-0.83611148,0.24443767,-0.00181989,-1.7229487,1393.6717)" /></defs><path
     d="M 12,0.99999998 C 2,0.99999998 0.99999998,6 0.99999998,12 0.99999998,20 4.0000001,23 12,23 20,23 23,20 23,12 23,6 22,0.99999998 12,0.99999998 Z"
     sketch:type="MSShapeGroup"
     id="path6"
     style="font-variation-settings:normal;display:inline;opacity:1;vector-effect:none;fill:url(#radialGradient7845);fill-opacity:1;stroke-width:1.11627;stroke-linecap:butt;stroke-linejoin:miter;stroke-miterlimit:4;stroke-dasharray:none;stroke-dashoffset:0;stroke-opacity:1;-inkscape-stroke:none;stop-color:#000000;stop-opacity:1"
     sodipodi:nodetypes="sssss"
     inkscape:label="Shape"
     sodipodi:insensitive="true"
     inkscape:export-filename="../../../../ícones big/path6.svg"
     inkscape:export-xdpi="96"
     inkscape:export-ydpi="96" /><path
     style="fill:url(#radialGradient5311);fill-opacity:1;stroke:none;stroke-width:0.0635019"
     d="m 6.3812854,13.234048 v 2.476571 L 8.5403463,14.14676 9.3275524,13.469005 9.3658675,12.345022 7.397312,13.742063 V 12.281521 H 5.8097691 V 7.8363952 h 7.1757019 v 4.4451258 h -1.333537 v 0.952527 c 0.527955,0 1.644188,0.210573 2.081969,-0.11062 0.305952,-0.224479 0.267597,-0.634701 0.267597,-0.968911 V 9.8684496 c 0,-0.7551 0.398092,-2.9412254 -0.69852,-2.9834096 C 11.277591,6.807129 9.2338684,6.88386 7.2068087,6.88386 6.6855542,6.88386 5.4724437,6.6614641 5.0727858,7.038398 4.737872,7.3542831 4.8572422,7.9939494 4.8572422,8.4079113 v 3.3020947 c 0,0.38863 -0.1130175,1.000406 0.1596369,1.319059 0.2893345,0.338083 0.9661103,0.204983 1.3644063,0.204983 M 17.5576,8.2809077 l -1.968555,1.4842589 -0.887249,0.7440394 -0.06527,1.2008 1.968556,-1.460542 v 1.460542 h 1.587542 v 4.445124 h -7.175702 v -4.445124 h 1.333538 v -0.952527 c -0.527954,0 -1.644183,-0.210585 -2.08199,0.110631 -0.3059067,0.224453 -0.267559,0.634681 -0.267578,0.968892 v 2.286065 c 0,0.760877 -0.4012471,2.949086 0.69852,2.98363 1.985384,0.06229 3.982706,9.75e-4 5.96917,9.75e-4 0.551702,0 1.752204,0.224543 2.208971,-0.11062 0.387044,-0.284003 0.267597,-0.934833 0.267597,-1.349944 v -3.365596 c 0,-0.399045 0.108153,-0.989483 -0.168469,-1.319033 -0.284489,-0.338903 -0.959957,-0.205009 -1.355573,-0.205009 0,-0.709468 0.210255,-1.8241531 -0.0635,-2.4765706 z"
     id="path5303" /></svg>

<svg xmlns="http://www.w3.org/2000/svg" xmlns:xlink="http://www.w3.org/1999/xlink" xml:space="preserve" width="24" height="24" fill="none"><defs><radialGradient xlink:href="#a" id="d" cx="-8.25" cy="18.729" r="4.853" fx="-8.25" fy="18.729" gradientTransform="matrix(4.31583 -3.50238 1.70743 2.10405 6.622 -48.19)" gradientUnits="userSpaceOnUse"/><radialGradient xlink:href="#b" id="c" cx="1627.053" cy="98.894" r="45" fx="1627.053" fy="98.894" gradientTransform="matrix(-.00625 -.83611 .24444 -.00182 -1.723 1393.672)" gradientUnits="userSpaceOnUse"/><linearGradient id="b"><stop offset="0" style="stop-color:#ececec;stop-opacity:1"/><stop offset="1" style="stop-color:#e6e6e6;stop-opacity:1"/></linearGradient><linearGradient id="a"><stop offset="0" style="stop-color:red;stop-opacity:1"/><stop offset="1" style="stop-color:#fc0;stop-opacity:1"/></linearGradient></defs><path d="M12 1C2 1 1 6 1 12c0 8 3 11 11 11s11-3 11-11c0-6-1-11-11-11Z" style="font-variation-settings:normal;display:inline;opacity:1;vector-effect:none;fill:url(#c);fill-opacity:1;stroke-width:1.11627;stroke-linecap:butt;stroke-linejoin:miter;stroke-miterlimit:4;stroke-dasharray:none;stroke-dashoffset:0;stroke-opacity:1;-inkscape-stroke:none;stop-color:#000;stop-opacity:1"/><path d="M6.381 13.234v2.477l2.16-1.564.787-.678.038-1.124-1.969 1.397v-1.46H5.81V7.836h7.175v4.446h-1.333v.952c.528 0 1.644.21 2.082-.11.306-.225.268-.635.268-.97V9.869c0-.755.398-2.94-.699-2.983-2.025-.078-4.07-.001-6.096-.001-.521 0-1.735-.223-2.134.154-.335.316-.216.956-.216 1.37v3.302c0 .389-.113 1 .16 1.32.29.337.966.204 1.364.204m11.177-4.953-1.969 1.484-.887.744-.065 1.201 1.968-1.46v1.46h1.588v4.445h-7.176V11.71h1.333v-.953c-.527 0-1.644-.21-2.082.111-.305.225-.267.635-.267.969v2.286c0 .76-.401 2.95.698 2.984 1.986.062 3.983 0 5.97 0 .551 0 1.752.225 2.209-.11.387-.284.267-.935.267-1.35v-3.365c0-.4.108-.99-.168-1.32-.285-.338-.96-.205-1.356-.205 0-.709.21-1.824-.063-2.476z" style="fill:url(#d);fill-opacity:1;stroke:none;stroke-width:.0635019"/></svg>
